X: 699
T: Ey Cefacu Dad
C: Şakir Ağa
O: Turkey
F: http://compmusic.upf.edu/node/140
N: huzzam--sarki--devrihindi--ey_cefacu--sakir_aga
N: makam= huzzam
N: form= sarki
N: usul= devrihindi = 7/4
M: 7/4
L: 1/16
K: C _1/4B _3/4e ^3/4f 
Q: 1/4=120
%%MIDI tuningsystem comma53
Bc BA G2 Bc Bc d4  | d4 g2 g2 =f2 =e2 d2  | \
w:   |   | 
d4 c2 d_7/8e dc B^A B2  | 
w:   | 
Bc BA G2 Bc Bc d4  | d4 g2 g2 =f2 =e2 d2  | \
w:   |   | 
d4 c2 d_7/8e dc B4  | 
w:   | 
^f4 g2 g2 fg f_7/8e de  | ^f2 g2 _7/8a2 ag gf _7/8ed c2  | \
w:   |   | 
d2 _7/8e2 ^f2 fe2d de dc  | 
w:   | 
d3c cB B4 z4  | g4 g2 ag g^f g4  | c'4 _ba ag g=f fg f_1/4e  | 
w:   |   |   | 
=f4 ga g2 f2 _1/4e2 d2  | d4 c2 d_7/8e dc B4  | \
w:   |   | 
Bc BA G2 Bc Bc d4  | 
w:   | 
d4 g2 g2 =f2 =e2 d2  | d4 c2 d_7/8e dc B4  | \
w:   |   | 
^f4 g2 g2 fg f_7/8e de  | 
w:   | 
^f2 g2 _a2 ag gf _7/8ed c2  | d2 _7/8e2 ^f2 fe2d de dc  | \
w:   |   | 
d3c cB B4 z4  | 
w:   | 
b4 ^a2 bc' ba b4  | ^f4 ^e2 fg fe f4  | \
w:   |   | 
B2 c2 d2 _7/8e2 ^f2 ag fe  | 
w:   | 
d_7/8e ^f2 e2 d2 dc cB B4 b4 ^a2 bc' ba b4 f4 ^e2 fg fe f4 B2 c2 d2 _7/8e2 f2 =ag  | 
w:   | 
^f_7/8e de f2 e2 d2 dc cB  | B4 Bc BA G2 Bc Bc  | 
w:   |   | 
d4 d4 g2 g2 =f2  | =e2 d2 d4 c2 d_7/8e dc  | \
w:   |   | 
B^A B2 Bc B=A G2 Bc Bc  | 
w:   | 
d4 d4 g2 g2 =f2  | =e2 d2 d4 c2 d_7/8e dc  | \
w:   |   | 
B4 ^f4 g2 g2 fg  | ^f_7/8e de f2 g2 _7/8a2 ag gf  | 
w:   |   | 
_7/8ed c2 d2 e2 ^f2 fe2d  | d_7/8e dc d3c cB B4  | \
w:   |   | 
z4 g4 g2 ag g^f  | 
w:   | 
g4 c'4 _ba ag g=f  | =fg f_1/4e f4 ga g2 f2  | \
w:   |   | 
_1/4e2 d2 d4 c2 d_7/8e dc  | 
w:   | 
B4 Bc BA G2 Bc Bc  | d4 d4 g2 g2 =f2  | \
w:   |   | 
=e2 d2 d4 c2 d_7/8e dc  | 
w:   | 
B4 ^f4 g2 g2 fg  | ^f_7/8e de f2 g2 _a2 ag gf  | \
w:   |   | 
_7/8ed c2 d2 e2 ^f2 fe2d  | 
w:   | 
d_7/8e dc d3c cB B4  | z4 |


